images/Star_small.svg

<svg width="17" height="17" viewBox="0 0 17 17" fill="none" xmlns="http://www.w3.org/2000/svg">
<path d="M8.59619 0.937012L10.4064 7.12682L16.5962 8.93701L10.4064 10.7472L8.59619 16.937L6.786 10.7472L0.596191 8.93701L6.786 7.12682L8.59619 0.937012Z" fill="#747272"/>
</svg>

<svg xmlns="http://www.w3.org/2000/svg" fill="none" viewBox="0 0 17 17">
  <path fill="#747272" d="m8.596.937 1.81 6.19 6.19 1.81-6.19 1.81-1.81 6.19-1.81-6.19-6.19-1.81 6.19-1.81 1.81-6.19Z"/>
</svg>
